X: 1
T: Cadrill - Kozaken
S: Ur Carl-Gustaf Tullbergs notbok
O: Högahult, Nöbbele, Småland
R: Kadrilj
M: 2/4
K: Dm
L: 1/16
dcde gfed|f2f2 e4|^c2e2 A2c2|d4 d4|^c2e2 A2c2|defg agfe|^c2e2 A2c2|d4 d4::
a4 g4|f2f2 e4|a2a2 g2g2|f2f2 e4|A^GA=B ^cABc|defg agfe|^c2e2 A2c2|d4 d4:|

